fl/GG.svg

<svg viewBox="0 0 21 15" xmlns="http://www.w3.org/2000/svg" height="1em" width="1em">
  <defs>
    <linearGradient x1="50%" y1="0%" x2="50%" y2="100%" id="a">
      <stop stop-color="#FFF" offset="0%"/>
      <stop stop-color="#F0F0F0" offset="100%"/>
    </linearGradient>
    <linearGradient x1="50%" y1="0%" x2="50%" y2="100%" id="b">
      <stop stop-color="#F33349" offset="0%"/>
      <stop stop-color="#E51D34" offset="100%"/>
    </linearGradient>
    <linearGradient x1="50%" y1="0%" x2="50%" y2="100%" id="c">
      <stop stop-color="#FCE24C" offset="0%"/>
      <stop stop-color="#F9DC38" offset="100%"/>
    </linearGradient>
  </defs>
  <g fill="none" fill-rule="evenodd">
    <path fill="url(#a)" d="M0 0h21v15H0z"/>
    <path d="M9 6H0v3h9v6h3V9h9V6h-9V0H9v6Z" fill="url(#b)"/>
    <path d="M10 8v4l-.5 1h2l-.5-1V8h4l1 .5v-2L15 7h-4V3l.5-1h-2l.5 1v4H6l-1-.5v2L6 8h4Z" fill="url(#c)"/>
  </g>
</svg>

<svg viewBox="0 0 21 15" version="1.1" xmlns="http://www.w3.org/2000/svg" height="1em" width="1em">
  <defs>
    <linearGradient x1="50%" y1="0%" x2="50%" y2="100%" id="a">
      <stop stop-color="#FFFFFF" offset="0%"/>
      <stop stop-color="#F0F0F0" offset="100%"/>
    </linearGradient>
    <linearGradient x1="50%" y1="0%" x2="50%" y2="100%" id="b">
      <stop stop-color="#F33349" offset="0%"/>
      <stop stop-color="#E51D34" offset="100%"/>
    </linearGradient>
    <linearGradient x1="50%" y1="0%" x2="50%" y2="100%" id="c">
      <stop stop-color="#FCE24C" offset="0%"/>
      <stop stop-color="#F9DC38" offset="100%"/>
    </linearGradient>
  </defs>
  <g stroke="none" stroke-width="1" fill="none" fill-rule="evenodd">
    <g>
      <rect fill="url(#a)" x="0" y="0" width="21" height="15"/>
      <path d="M9,6 L0,6 L0,9 L9,9 L9,15 L12,15 L12,9 L21,9 L21,6 L12,6 L12,0 L9,0 L9,6 Z" fill="url(#b)"/>
      <path d="M10,8 L10,12 L9.5,13 L11.5,13 L11,12 L11,8 L15,8 L16,8.5 L16,6.5 L15,7 L11,7 L11,3 L11.5,2 L9.5,2 L10,3 L10,7 L6,7 L5,6.5 L5,8.5 L6,8 L10,8 Z" fill="url(#c)"/>
    </g>
  </g>
</svg>
